src/vlite/svg/fullscreen.svg

<svg version="1.1" xmlns="http://www.w3.org/2000/svg" viewBox="0 0 32 32"><path d="M27.414 24.586l-4.586-4.586-2.828 2.828 4.586 4.586-4.586 4.586h12v-12zM12 0h-12v12l4.586-4.586 4.543 4.539 2.828-2.828-4.543-4.539zM12 22.828l-2.828-2.828-4.586 4.586-4.586-4.586v12h12l-4.586-4.586zM32 0h-12l4.586 4.586-4.543 4.539 2.828 2.828 4.543-4.539 4.586 4.586z"></path></svg>

<svg xmlns="http://www.w3.org/2000/svg" viewBox="0 0 32 32"><path d="M27.414 24.586L22.828 20 20 22.828l4.586 4.586L20 32h12V20zM12 0H0v12l4.586-4.586 4.543 4.539 2.828-2.828-4.543-4.539zm0 22.828L9.172 20l-4.586 4.586L0 20v12h12l-4.586-4.586zM32 0H20l4.586 4.586-4.543 4.539 2.828 2.828 4.543-4.539L32 12z"/></svg>
